img/svg-icons/door-open.svg

<svg xmlns="http://www.w3.org/2000/svg" id="door-open" viewBox="0 0 38.7 57.6"><path d="M0 0v57.6h38.7V0H0zm1.9 2.8l16.5 10.6v42.3H1.9V2.8zm34.8 52.9H20.3V12.4L4.1 1.9h32.6v53.8z"/></svg>

<svg id="door-open" xmlns="http://www.w3.org/2000/svg" width="38.7" height="57.6" viewBox="0 0 38.7 57.6"><title>door-open</title><path d="M0,0V57.6H38.7V0H0ZM1.9,2.8L18.4,13.4V55.7H1.9V2.8ZM36.7,55.7H20.3V12.4L4.1,1.9H36.7V55.7h0Z" transform="translate(0 0)"  /></svg>
